packages/core/src/svgs/tokens/branded/R.svg

<svg width="24" height="24" viewBox="0 0 24 24" fill="none" xmlns="http://www.w3.org/2000/svg">
<path d="M8.87499 19.5V6.21686L14.4231 9.30875L10.1249 11.5712V15.7487L18.8749 22V17.47L13.7812 13.8293L18.25 11.4831V7.29373L8.87499 2L5.125 3.87499V22L8.87499 19.5Z" fill="url(#paint0_linear_364_9070)"/>
<defs>
<linearGradient id="paint0_linear_364_9070" x1="7.20246" y1="5.5532" x2="20.0324" y2="15.5495" gradientUnits="userSpaceOnUse">
<stop stop-color="#771A4E"/>
<stop offset="1" stop-color="#3A0C4C"/>
</linearGradient>
</defs>
</svg>

<svg xmlns="http://www.w3.org/2000/svg" width="24" height="24" fill="none" viewBox="0 0 24 24">
    <path fill="url(#R__a)" d="M8.875 19.5V6.217l5.548 3.092-4.298 2.262v4.178L18.875 22v-4.53l-5.094-3.64 4.469-2.347v-4.19L8.875 2l-3.75 1.875V22z"/>
    <defs>
        <linearGradient id="R__a" x1="7.202" x2="20.032" y1="5.553" y2="15.55" gradientUnits="userSpaceOnUse">
            <stop stop-color="#771A4E"/>
            <stop offset="1" stop-color="#3A0C4C"/>
        </linearGradient>
    </defs>
</svg>
